X: 21012
T: MA CHERE AMIE
Q: "Andantino"
%R: march, reel
B: "Edinburgh Repository of Music" v.2 p.101 #2
F: http://digital.nls.uk/special-collections-of-printed-music/pageturner.cfm?id=87776133
Z: 2015 John Chambers <jc:trillian.mit.edu>
M: 2/4
L: 1/16
K: D
[|\
d4 d2d2 | a4 e4 | f4 agfe | d3e/d/ c4 |\
d4 d2d2 | a4 e4 | f4 edec | A4 z2A2 |\
g3ag2f2 | (f2e2) d4 | cdef g2f2 | (f4 e2)A2 |
g3ag2f2 | f2e2 d4 | (cdef) g2f2 | Hf4 {egf}He4 |\
f4 (gfge) | a2f2 d'4 | f4 gfge | a2f2 d'4 |\
a4 (gfed) | Hb8 | {c'2d'2}d4 egfe | d4 z4 |]
